src/shared/assets/image/calendar/2-february.svg

<svg width="24" height="24" viewBox="0 0 24 24" fill="none" xmlns="http://www.w3.org/2000/svg">
<g clip-path="url(#clip0_1_388)">
<path d="M19.5 2H18V0.5C18 0.224 17.776 0 17.5 0C17.224 0 17 0.224 17 0.5V2H7V0.5C7 0.224 6.776 0 6.5 0C6.224 0 6 0.224 6 0.5V2H4.5C2.019 2 0 4.019 0 6.5V19.5C0 21.981 2.019 24 4.5 24H5.5C5.776 24 6 23.776 6 23.5C6 23.224 5.776 23 5.5 23H4.5C2.57 23 1 21.43 1 19.5V9H23V13.5C23 13.776 23.224 14 23.5 14C23.776 14 24 13.776 24 13.5V6.5C24 4.019 21.981 2 19.5 2ZM1 8V6.5C1 4.57 2.57 3 4.5 3H19.5C21.43 3 23 4.57 23 6.5V8H1Z" fill="#474A55"/>
<path d="M8.23 22.29C8.09667 22.29 7.99333 22.2533 7.92 22.18C7.84667 22.1067 7.81 22.0033 7.81 21.87V21.21L8.04 21.44H7.79C7.13 21.44 6.56333 21.3167 6.09 21.07C5.61667 20.8233 5.25 20.4767 4.99 20.03C4.73667 19.5767 4.61 19.04 4.61 18.42C4.61 17.9467 4.68 17.5233 4.82 17.15C4.96 16.7767 5.16667 16.4633 5.44 16.21C5.71333 15.95 6.04667 15.7533 6.44 15.62C6.83333 15.48 7.28333 15.41 7.79 15.41H8.04L7.81 15.64V15.03C7.81 14.89 7.84667 14.7867 7.92 14.72C7.99333 14.6467 8.09667 14.61 8.23 14.61C8.36333 14.61 8.46333 14.6467 8.53 14.72C8.60333 14.7867 8.64 14.89 8.64 15.03V15.64L8.42 15.41H8.67C9.34333 15.41 9.91667 15.53 10.39 15.77C10.8633 16.01 11.2233 16.3567 11.47 16.81C11.7167 17.2567 11.84 17.7933 11.84 18.42C11.84 18.8867 11.7667 19.3067 11.62 19.68C11.48 20.0533 11.2733 20.37 11 20.63C10.7267 20.89 10.3933 21.09 10 21.23C9.60667 21.37 9.16333 21.44 8.67 21.44H8.42L8.64 21.21V21.87C8.64 22.0033 8.60667 22.1067 8.54 22.18C8.47333 22.2533 8.37 22.29 8.23 22.29ZM7.82 20.95V15.9L8.02 16.07H7.67C7.33667 16.07 7.03333 16.1233 6.76 16.23C6.48667 16.33 6.25333 16.48 6.06 16.68C5.86667 16.88 5.71667 17.1267 5.61 17.42C5.51 17.7067 5.46 18.04 5.46 18.42C5.46 18.9067 5.55333 19.3267 5.74 19.68C5.92667 20.0333 6.18667 20.3033 6.52 20.49C6.85333 20.6767 7.23667 20.77 7.67 20.77H8.02L7.82 20.95ZM8.64 20.95L8.43 20.77H8.78C9.10667 20.77 9.40667 20.7167 9.68 20.61C9.95333 20.5033 10.1867 20.35 10.38 20.15C10.5733 19.9433 10.7233 19.6967 10.83 19.41C10.9367 19.1167 10.99 18.7867 10.99 18.42C10.99 17.9133 10.9 17.4867 10.72 17.14C10.54 16.7867 10.2833 16.52 9.95 16.34C9.62333 16.16 9.23333 16.07 8.78 16.07H8.43L8.64 15.9V20.95ZM15.4473 22.09C14.9339 22.09 14.4906 21.99 14.1173 21.79C13.7506 21.5833 13.4639 21.2933 13.2573 20.92C13.0573 20.5467 12.9573 20.1 12.9573 19.58C12.9573 19.0733 13.0573 18.6333 13.2573 18.26C13.4573 17.88 13.7306 17.5833 14.0773 17.37C14.4306 17.1567 14.8373 17.05 15.2973 17.05C15.6239 17.05 15.9173 17.1067 16.1773 17.22C16.4373 17.3267 16.6573 17.4833 16.8373 17.69C17.0239 17.8967 17.1639 18.1467 17.2573 18.44C17.3573 18.7333 17.4073 19.0633 17.4073 19.43C17.4073 19.5367 17.3773 19.6167 17.3173 19.67C17.2573 19.7167 17.1706 19.74 17.0573 19.74H13.5773V19.21H16.8673L16.7073 19.34C16.7073 18.98 16.6539 18.6767 16.5473 18.43C16.4406 18.1767 16.2839 17.9833 16.0773 17.85C15.8773 17.7167 15.6239 17.65 15.3173 17.65C14.9773 17.65 14.6873 17.73 14.4473 17.89C14.2139 18.0433 14.0373 18.26 13.9173 18.54C13.7973 18.8133 13.7373 19.1333 13.7373 19.5V19.56C13.7373 20.1733 13.8839 20.64 14.1773 20.96C14.4773 21.28 14.9006 21.44 15.4473 21.44C15.6739 21.44 15.8973 21.41 16.1173 21.35C16.3439 21.29 16.5639 21.19 16.7773 21.05C16.8706 20.99 16.9539 20.9633 17.0273 20.97C17.1073 20.97 17.1706 20.9933 17.2173 21.04C17.2639 21.08 17.2939 21.1333 17.3073 21.2C17.3273 21.26 17.3206 21.3267 17.2873 21.4C17.2606 21.4733 17.2039 21.5367 17.1173 21.59C16.8973 21.75 16.6373 21.8733 16.3373 21.96C16.0373 22.0467 15.7406 22.09 15.4473 22.09ZM19.0872 22C18.9539 22 18.8505 21.9633 18.7772 21.89C18.7039 21.8167 18.6672 21.7133 18.6672 21.58V17.56C18.6672 17.4267 18.7039 17.3233 18.7772 17.25C18.8505 17.1767 18.9539 17.14 19.0872 17.14H21.0372C21.4239 17.14 21.7405 17.19 21.9872 17.29C22.2339 17.3833 22.4172 17.5267 22.5372 17.72C22.6572 17.9067 22.7172 18.14 22.7172 18.42C22.7172 18.7267 22.6072 18.9867 22.3872 19.2C22.1739 19.4133 21.8939 19.54 21.5472 19.58V19.45C21.9605 19.4633 22.2839 19.58 22.5172 19.8C22.7572 20.02 22.8772 20.3067 22.8772 20.66C22.8772 21.0733 22.7239 21.4 22.4172 21.64C22.1105 21.88 21.6772 22 21.1172 22H19.0872ZM19.4372 21.45H21.0872C21.4139 21.45 21.6639 21.38 21.8372 21.24C22.0172 21.0933 22.1072 20.8867 22.1072 20.62C22.1072 20.3533 22.0172 20.15 21.8372 20.01C21.6639 19.87 21.4139 19.8 21.0872 19.8H19.4372V21.45ZM19.4372 19.25H20.9972C21.2972 19.25 21.5305 19.18 21.6972 19.04C21.8705 18.9 21.9572 18.7067 21.9572 18.46C21.9572 18.2133 21.8705 18.0233 21.6972 17.89C21.5305 17.7567 21.2972 17.69 20.9972 17.69H19.4372V19.25Z" fill="#474A55"/>
</g>
<defs>
<clipPath id="clip0_1_388">
<rect width="24" height="24" fill="white"/>
</clipPath>
</defs>
</svg>

<svg width="24" height="24" fill="none" xmlns="http://www.w3.org/2000/svg"><g clip-path="url(#a)" fill="#474A55"><path d="M19.5 2H18V.5a.5.5 0 0 0-1 0V2H7V.5a.5.5 0 0 0-1 0V2H4.5A4.5 4.5 0 0 0 0 6.5v13A4.5 4.5 0 0 0 4.5 24h1a.5.5 0 0 0 0-1h-1A3.5 3.5 0 0 1 1 19.5V9h22v4.5a.5.5 0 0 0 1 0v-7A4.5 4.5 0 0 0 19.5 2ZM1 8V6.5A3.5 3.5 0 0 1 4.5 3h15A3.5 3.5 0 0 1 23 6.5V8H1Z"/><path d="M8.23 22.29a.42.42 0 0 1-.31-.11.42.42 0 0 1-.11-.31v-.66l.23.23h-.25c-.66 0-1.23-.12-1.7-.37s-.84-.6-1.1-1.04a3.25 3.25 0 0 1-.38-1.61c0-.47.07-.9.21-1.27.14-.37.35-.69.62-.94.27-.26.6-.46 1-.59.4-.14.84-.21 1.35-.21h.25l-.23.23v-.61c0-.14.04-.24.11-.31a.42.42 0 0 1 .31-.11c.13 0 .23.04.3.11.07.07.11.17.11.31v.61l-.22-.23h.25c.67 0 1.25.12 1.72.36s.83.59 1.08 1.04c.25.45.37.98.37 1.61 0 .47-.07.89-.22 1.26a2.5 2.5 0 0 1-.62.95c-.27.26-.6.46-1 .6-.4.14-.84.21-1.33.21h-.25l.22-.23v.66c0 .13-.03.24-.1.31s-.17.11-.31.11Zm-.41-1.34V15.9l.2.17h-.35c-.33 0-.64.05-.91.16-.27.1-.5.25-.7.45-.2.2-.34.45-.45.74-.1.29-.15.62-.15 1 0 .49.1.9.28 1.26.19.35.45.62.78.81.33.19.72.28 1.15.28h.35l-.2.18Zm.82 0-.21-.18h.35c.33 0 .63-.05.9-.16a1.94 1.94 0 0 0 1.15-1.2c.1-.3.16-.62.16-.99 0-.5-.09-.93-.27-1.28a1.82 1.82 0 0 0-.77-.8 2.39 2.39 0 0 0-1.17-.27h-.35l.21-.17v5.05Zm6.8 1.14c-.5 0-.95-.1-1.32-.3a2.2 2.2 0 0 1-.86-.87 2.8 2.8 0 0 1-.3-1.34c0-.5.1-.95.3-1.32.2-.38.47-.68.82-.89.35-.21.76-.32 1.22-.32.32 0 .62.06.88.17.26.1.48.26.66.47.18.2.32.46.42.75.1.3.15.62.15.99 0 .1-.03.19-.1.24a.42.42 0 0 1-.25.07h-3.48v-.53h3.29l-.16.13c0-.36-.06-.66-.16-.91s-.27-.45-.47-.58c-.2-.13-.46-.2-.76-.2a1.43 1.43 0 0 0-1.4.89c-.12.27-.18.6-.18.96v.06c0 .61.14 1.08.44 1.4.3.32.72.48 1.27.48a2.54 2.54 0 0 0 1.33-.39.4.4 0 0 1 .25-.08c.08 0 .14.02.19.07.04.04.07.1.09.16.02.06.01.13-.02.2a.38.38 0 0 1-.17.19c-.22.16-.48.28-.78.37-.3.09-.6.13-.9.13ZM19.1 22a.42.42 0 0 1-.31-.11.42.42 0 0 1-.11-.31v-4.02c0-.13.03-.24.1-.31a.42.42 0 0 1 .32-.11h1.95c.38 0 .7.05.95.15.24.1.43.24.55.43.12.19.18.42.18.7 0 .3-.11.57-.33.78-.22.21-.5.34-.84.38v-.13c.41.01.73.13.97.35.24.22.36.5.36.86 0 .41-.16.74-.46.98-.31.24-.74.36-1.3.36h-2.03Zm.35-.55h1.65c.32 0 .57-.07.75-.21a.75.75 0 0 0 .27-.62c0-.27-.1-.47-.27-.61a1.17 1.17 0 0 0-.75-.21h-1.65v1.65Zm0-2.2H21c.3 0 .53-.07.7-.21a.7.7 0 0 0 .26-.58.68.68 0 0 0-.26-.57 1.1 1.1 0 0 0-.7-.2h-1.56v1.56Z"/></g><defs><clipPath id="a"><path fill="#fff" d="M0 0h24v24H0z"/></clipPath></defs></svg>
